X:388
T:Miss Amelia Eliphant Gask
T:Miss Amelia Oliphant Gask
T:Miss Oliphant
B:Kerr's Merry Melodies, Bk 3 (c1880s)
Z:Nigel Gatherer
M:4/4
L:1/8
K:D
B|A<F F>D E>D B2|A<F F>A B>cd>B|A<F F>D E>DE>F|D>BA,>B D2-D:|
f|d/e/f/g/ a>g f<d d>f|a>df>d f<e e>f|d/e/f/g/ a>g f<d d>f|\
1d>B A<B d3:|2d/c/B/A/ B/d/c/e/ d3|]
<end>
<start>
